X: 27573
T: Monkey On The Pony, The
R: polka
M: 2/4
K: Dmajor
f|:Bd/B/ fe/d/|Bd/B/ e/d/c/A/|Bd/B/ f2e/d/|a/f/e/f/ e/d/c/A/|
Bd/B/ f2e/d/|Bd/B/ e/d/c/A/|Bf e/d/c/A/|B/B/d/A/ B2:|
|:ae/f/ B/f/e/d/|B/f/f/B/ ae/f/|ae/f/ B/f/e/d/|c/A/c/d/ e/d/c/A/|
ae/f/ B/f/e/d/|B/f/f/B/ ae/f/|Bf e/d/c/A/|B/B/d/A/ B2:|

